!!!!SEGMENT: pl-kk--kk-i-382--017_anonim--nro-6-rorate-caeli.krn
!!!cenid: 18xx:1484
!!!COM: Anonim
!!!COM-rismid: pe30004985
!!!CDT:
!!!CNT:
!!!OTL: Nro 6 Rorate Caeli
!!!PDT:
!!!AGN: Sacred
!!!SMS-siglum: PL-Kk
!!!SMS-shelfmark: Kk.I.382
!!!SMS-shelfwork: 017
!!!SMS-variant:
!!!SMS-altvar:
!!!NIFC-rismid: 1001139132
!!!URL-scan: http://repozytorium.nifc.pl/skany/pl-kk-nut--i-382
!!!ONB-nifc: UWAGA: obsada: S (T 1), A (B 1), T 2, B 2; S (T 1): skan 0016-0017; A (B 1): skan 0162; T 2: skan 0088-0089; B 2: skan 0234
**kern	**text	**dynam	**kern	**text	**kern	**text	**kern	**text
*part4	*part4	*part4	*part3	*part3	*part2	*part2	*part1	*part1
*staff4	*staff4	*	*staff3	*staff3	*staff2	*staff2	*staff1	*staff1
*I"Basso II	*	*	*I"Tenore II	*	*I"Alto vel Basso I	*	*I"Soprano vel Tenore I.	*
*I'B 2	*	*	*I'T 2	*	*I'A (B 1)	*	*I'S (T 1)	*
*clefF4	*	*	*clefC4	*	*clefC3	*	*clefC1	*
*k[b-]	*	*	*k[b-]	*	*k[b-]	*	*k[b-]	*
*F:	*	*	*F:	*	*F:	*	*F:	*
*M4/4	*	*	*M4/4	*	*M4/4	*	*M4/4	*
*met(C.)	*	*	*met(C.)	*	*met(C.)	*	*met(C.)	*
=1	=1	=1	=1	=1	=1	=1	=1	=1
*2\right	*	*	*2\right	*	*2\right	*	*2\right	*
!LO:TX:t=P:problem:all\right:global	!	!	!LO:TX:t=P:problem:all\right:global	!	!LO:TX:a:i:t=in F.\nNro 6 Rorate	!	!LO:TX:t=P:problem:all\right:global	!
!LO:TX:a:t=P:problem:w źródle ta adnotacja zapisana przed pierwszym taktem, na pięciolinii i częściowo nad pięciolinią	!	!	!LO:TX:a:t=P:problem:w źródle ta adnotacja zapisana przed pierwszym taktem, na pięciolinii i częściowo nad pięciolinią	!	!LO:TX:a:t=P:problem:w źródle ta adnotacja zapisana przed pierwszym taktem, na pięciolinii i częściowo nad pięciolinią	!	!LO:TX:a:t=P:problem:w źródle ta adnotacja zapisana przed pierwszym taktem, na pięciolinii i częściowo przed pięciolinią	!
!LO:TX:a:i:t=in F.\nNro 6. Rorate	!	!	!LO:TX:a:i:t=in F.\nNro 6. Rorate.	!	!LO:TX:t=P:problem:all\right:global	!	!LO:TX:a:i:t=Nro 6. Rorate	!
2F\	Ro-	.	2c\	Ro-	2f\	Ro-	2a\	Ro-
4F\	-ra-	.	4c\	-ra-	4f\	-ra-	4a\	-ra-
4G\	-te	.	4c\	-te	4e\	-te	4b-\	-te
=2	=2	=2	=2	=2	=2	=2	=2	=2
!LO:SIC:l:v:s=cae-	!	!	!LO:SIC:l:v:s=cae-	!	!LO:SIC:l:v:s=cae-	!	!LO:SIC:l:v:s=cae-	!
2A\	ce-	.	2A\	ce-	2f\	ce-	2cc\	ce-
2B-\	-li	.	2d\	-li	2f\	-li	2dd\	-li
=3	=3	=3	=3	=3	=3	=3	=3	=3
!	!	!	!	!	!	!	!LO:SIC:l:v:s=cae-	!
2A\	de-	.	(>1c	de-	(>1a	de-	2ee\	ce-
2D/	.	.	.	.	.	.	2ff\	-li
=4	=4	=4	=4	=4	=4	=4	=4	=4
2G\	.	.	2.B-X\)	.	2.g\)	.	2ff\	de-
2C/	-su-	.	.	.	.	.	2ee\	-su-
.	.	.	4B-\	-su-	4g\	-su-	.	.
=5	=5	=5	=5	=5	=5	=5	=5	=5
4F\	-per	.	4A\	-per	4f\	-per	4ff\	-per
4F\	ro-	.	4c\	ro-	4f\	ro-	4a\	et
!	!	!	!	!	!	!	!LO:LB:g=original	!
4F\	-ra-	.	4c\	-ra-	4f\	-ra-	4a\	nu-
4F\	-te	.	4c\	-te	4f\	-te	4a\	-bes
!LO:LB:g=original	!	!	!	!	!LO:LB:g=original	!	!	!
=6	=6	=6	=6	=6	=6	=6	=6	=6
!LO:SIC:l:v:s=cae-	!	!	!LO:SIC:l:v:s=cae-	!	!LO:SIC:l:v:s=cae-	!	!	!
2F\	ce-	.	2d\	ce-	2g\	ce-	2bn\	plu-
2E\	-li	.	2e\	-li	2g\	-li	2cc\	-ant
!	!	!	!LO:LB:g=original	!	!	!	!	!
=7	=7	=7	=7	=7	=7	=7	=7	=7
2.D\	de-	.	2.A\	de-	2.f\	de-	(>2cc\	ju-
.	.	.	.	.	.	.	2bn\)	.
4D\	-su-	.	4d\	-su-	4f\	-su-	.	.
=8	=8	=8	=8	=8	=8	=8	=8	=8
4C/	-per	.	4e\	-per	4g\	-per	4cc\	-stum
4c\	ro-	.	4c\	ro-	4e\	ro-	4g\	a-
4c\	-ra-	.	4c\	-ra-	4e\	-ra-	4g\	-pe-
4B-\	-te	.	4c\	-te	4e\	-te	4g\	-ri-
=9	=9	=9	=9	=9	=9	=9	=9	=9
!LO:SIC:l:v:s=cae-	!	!	!LO:SIC:l:v:s=cae-	!	!LO:SIC:l:v:s=cae-	!	!	!
(>4A\	ce-	.	(>4c\	ce-	2f\	ce-	2a\	-a-
4G\)	.	.	4B-\)	.	.	.	.	.
(>4A\	-li	.	(>4c\	-li	2a\	-li	2cc\	-tur
4F\)	.	.	4A\)	.	.	.	.	.
=10	=10	=10	=10	=10	=10	=10	=10	=10
!LO:SIC:l:v:s=cae-	!	!	!LO:SIC:l:v:s=cae-	!	!LO:SIC:l:v:s=cae-	!	!	!
2.B-\	ce-	.	2.B-\	ce-	2.f\	ce-	2dd\	ter-
.	.	.	.	.	.	.	4dd\	-ra
4A\	-li	.	4c\	-li	4f\	-li	4cc\	et
!	!	!	!	!	!	!	!LO:LB:g=original	!
=11	=11	=11	=11	=11	=11	=11	=11	=11
2.G\	de-	.	2.d\	de-	(>4f\	de-	2.b-\	ger-
.	.	.	.	.	8e\L	.	.	.
.	.	.	.	.	8d\J)	.	.	.
.	.	.	.	.	2e\	-su-	.	.
4G\	-su-	.	4B-\	-su-	.	.	4b-\	-mi-
=12	=12	=12	=12	=12	=12	=12	=12	=12
4F\	-per	.	4c\	-per	4f\	-per	4a\	-net,
!LO:TX:a:t=P:problem:w źródle "p." zapisane na pięiolinii	!	!	!	!	!	!	!	!
!	!	!LO:DY:rj	!	!	!	!	!	!
!	!	!LO:DY:b:t=p.	!	!	!	!	!	!
4c\	et	p	4c\	et	4r	.	4cc\	et
4c\	nu-	.	4c\	nu-	2r	.	4cc\	nu-
4c\	-bes	.	4c\	-bes	.	.	4cc\	-bes
!LO:LB:g=original	!	!	!	!	!LO:LB:g=original	!	!	!
=13	=13	=13	=13	=13	=13	=13	=13	=13
(>4A\	plu-	.	(>4A\	plu-	4r	.	(>4a\	plu-
4B-\)	.	.	4B-\)	.	4f\	et	4b-\)	.
(>4A\	-ant	.	(>4A\	-ant	4f\	nu-	(>4a\	-ant
4G\)	.	.	4G\)	.	4f\	-bes	4g\)	.
!	!	!	!LO:LB:g=original	!	!	!	!	!
=14	=14	=14	=14	=14	=14	=14	=14	=14
1G	jus-	.	4r	.	(>4e\	plu-	1g	ju-
.	.	.	4c\	et	4f\)	.	.	.
.	.	.	4c\	nu-	(>4e\	-ant	.	.
.	.	.	4c\	-bes	4d\)	.	.	.
=15	=15	=15	=15	=15	=15	=15	=15	=15
4A\	-tum	.	(>4A\	plu-	2c\	plu-	4a\	stum
!LO:TX:a:t=P:problem:w źródle "f." zapisane na pięiolini	!	!	!	!	!	!	!	!
!	!	!LO:DY:rj	!	!	!	!	!	!
!	!	!LO:DY:b:t=f.	!	!	!	!	!	!
4F\	et	f	4B-\)	.	.	.	4a\	et
4F\	nu-	.	(>4A\	-ant	2f\	-ant	4a\	nu-
4F\	-bes	.	4G\)	.	.	.	4b-\	-bes
!	!	!	!	!	!	!	!LO:LB:g=original	!
=16	=16	=16	=16	=16	=16	=16	=16	=16
(>4E\	nu-	.	2G/	nu-	2g\	ius-	2cc\	plu-
4F\)	.	.	.	.	.	.	.	.
(>4E\	-bes	.	2c\	-bes	2g\	-tum	2cc\	-ant
4D\)	.	.	.	.	.	.	.	.
=17	=17	=17	=17	=17	=17	=17	=17	=17
(<4C/	plu-	.	2G/	plu-	2g\	nu-	2cc\	plu-
4D/)	.	.	.	.	.	.	.	.
(<4E/	-ant	.	2e\	-ant	2g\	-bes	2cc\	-ant
4C/)	.	.	.	.	.	.	.	.
=18	=18	=18	=18	=18	=18	=18	=18	=18
4G\	plu-	.	4d\	plu-	4g\	plu-	(>4bn\	ju-
4C/	-ant	.	4e\	-ant	4g\	-ant	2cc\	.
!LO:SIC:l:v:s=iu-	!	!	!	!	!	!	!	!
(>4G\	ius-	.	2d\	ius-	2g\	ius-	.	.
4GG/)	.	.	.	.	.	.	4b\)	.
!LO:LB:g=original	!	!	!	!	!	!	!	!
=19	=19	=19	=19	=19	=19	=19	=19	=19
4C/	-stum	.	4e\	-tum	4g\	-tum	4cc\	-stum
4c\	et	.	4r	.	4r	.	4ee\	et
4c\	nu-	.	2r	.	2r	.	4ee\	nu-
4c\	-bes	.	.	.	.	.	4ee\	-bes
=20	=20	=20	=20	=20	=20	=20	=20	=20
(>4A\	nu-	.	4r	.	1r	.	(>4cc\	nu-
4B-\)	.	.	4f\	et	.	.	4dd\)	.
!	!	!	!	!	!LO:TX:a:t=1.	!	!	!
(>4A\	-bes	.	4f\	nu-	.	.	(>4cc\	-bes
4G\)	.	.	4f\	-bes	.	.	4b-X\)	.
!	!	!	!LO:LB:g=original	!	!LO:LB:g=original	!	!LO:LB:g=original	!
=21	=21	=21	=21	=21	=21	=21	=21	=21
(>4F\	plu-	.	2f\	nu-	2r	.	2a\	plu-
4G\)	.	.	.	.	.	.	.	.
(>4A\	-ant	.	2c\	-bes	2f\	plu-	2a\	-ant
4F\)	.	.	.	.	.	.	.	.
=22	=22	=22	=22	=22	=22	=22	=22	=22
4d\	plu-	.	4d\	plu-	2f\	-ant	4a\	plu-
4B-\	-ant	.	4d\	-ant	.	.	4b-\	-ant
(>4c\	ius-	.	2c\	ius-	(>4f\	iu-	2g\	ju-
4C/)	.	.	.	.	4e\)	.	.	.
=23	=23	=23	=23	=23	=23	=23	=23	=23
2F\	-tum	.	2c\	-tum	2f\	-stum	2a\	-stum
2c\	a-	.	2c\	a-	2e\	a-	2g\	a-
=24	=24	=24	=24	=24	=24	=24	=24	=24
2c\	-pe-	.	2d\	-pe-	2f\	-pe-	2a\	-per-
2B-X\	-ri-	.	2d\	-ri-	2g\	-ri-	2b-X\	-ri-
!LO:LB:g=original	!	!	!	!	!	!	!	!
=25	=25	=25	=25	=25	=25	=25	=25	=25
2B-\	-a-	.	2c\	-a-	2e\	-a-	2g\	-a-
2A\	-tur	.	2c\	-tur	2f\	-tur	2a\	-tur
=26	=26	=26	=26	=26	=26	=26	=26	=26
2G\	ter-	.	2d\	ter-	(>2f\	ter-	1b-X	ter-
2c\	.	.	2G/	.	2e\)	.	.	.
=27	=27	=27	=27	=27	=27	=27	=27	=27
2F\	-ra	.	2c\	-ra	2f\	-ra	2a\	-ra
2E\	et	.	2e\	et	2g\	et	2cc#X\	et
!	!	!	!	!	!	!	!LO:LB:g=original	!
=28	=28	=28	=28	=28	=28	=28	=28	=28
(>4D\	ger-	.	4f\	ger-	(>4a\	ger-	4dd\	ger-
4E\)	.	.	(>4e\	.	4g\	.	4cc#X\	.
(>4F\	-mi-	.	4d\	.	4f\	.	4dd\	.
4G\)	.	.	4B-\	.	4b-\	.	8ee\L	.
.	.	.	.	.	.	.	8dd\J	.
=29	=29	=29	=29	=29	=29	=29	=29	=29
2A\	-net	.	2A\)	.	2en\)	.	2cc#X\	.
4A\	sal-	.	4A\	-mi-	4e\	-mi-	4cc#\	-mi-
4A\	-va-	.	4A\	-net	4e\	-net	4cc#\	-net
!	!	!	!LO:LB:g=original	!	!LO:LB:g=original	!	!	!
=30	=30	=30	=30	=30	=30	=30	=30	=30
2d\	-to-	.	2A/	sal-	1f	Sal-	1dd	sal-
2G\	.	.	2G/	.	.	.	.	.
=31	=31	=31	=31	=31	=31	=31	=31	=31
2c\	.	.	2F/	.	1e	-va-	1ccn	-va-
2F\	.	.	2f\	-va-	.	.	.	.
=32	=32	=32	=32	=32	=32	=32	=32	=32
2B-\	.	.	2f\	-to-	(>1d	-to-	(>1b-X	-to-
2E\	.	.	2e\	.	.	.	.	.
=33	=33	=33	=33	=33	=33	=33	=33	=33
2A\	.	.	2e\	.	1c)	.	1a)	.
2D\	.	.	2d\	.	.	.	.	.
!LO:LB:g=original	!	!	!	!	!	!	!	!
=34	=34	=34	=34	=34	=34	=34	=34	=34
2G\	-rem	.	2d\	-rem	2d\	-rem	2bn\	-rem
4E\	sal-	.	4c\	sal-	4e\	sal-	4cc\	sal-
4C/	-va-	.	4c\	-va-	4g\	-va-	4ee\	-va-
=35	=35	=35	=35	=35	=35	=35	=35	=35
4F\	-to-	.	2c\	-to-	(>2.a\	-to-	2.cc\	-to-
4E\	.	.	.	.	.	.	.	.
4F\	.	.	4A\	.	.	.	.	.
4G\	.	.	4B-\	.	4g\	.	4b-X\	.
!	!	!	!	!	!	!	!LO:LB:g=original	!
=36	=36	=36	=36	=36	=36	=36	=36	=36
4A\	.	.	2.A/	.	1f)	.	4cc\	.
4G\	.	.	.	.	.	.	4b-\	.
4A\	.	.	.	.	.	.	4cc\	.
4B-\	.	.	4G/	.	.	.	4dd\	.
=37	=37	=37	=37	=37	=37	=37	=37	=37
2c\	-rem	.	2G/	-rem	2e\	-rem	2cc\	-rem
4A\	sal-	.	4A/	sal-	4f\	sal-	4cc\	sal-
4F\	-va-	.	4A/	-va-	4f\	-va-	4cc\	-va-
=38	=38	=38	=38	=38	=38	=38	=38	=38
4B-\	-to-	.	2B-\	-to-	(>2f\	-to-	(>4b-\	-to-
4G\	.	.	.	.	.	.	4dd\	.
4c\	.	.	2G/	.	2e\)	.	2cc\)	.
4C/	.	.	.	.	.	.	.	.
!	!	!	!LO:LB:g=original	!	!	!	!	!
=39	=39	=39	=39	=39	=39	=39	=39	=39
2F\	-rem	.	2A\	-rem	2f\	-rem	2cc\	-rem
4BBn/	sal-	.	4d\	sal-	4f\	sal-	4g\	sal-
4BB/	-va-	.	4d\	-va-	4f\	-va-	4g\	-va-
!	!	!	!	!	!LO:LB:g=original	!	!	!
=40	=40	=40	=40	=40	=40	=40	=40	=40
[>1C	-to-	.	2c\	-to-	(>2e\	-to-	(>2g\	-to-
.	.	.	2c\	-rem	2f\	.	2a\	.
=41	=41	=41	=41	=41	=41	=41	=41	=41
1C]	rem	.	2c\	sal-	2e\	.	2g\	.
!	!	!	!	!	!	!	!LO:TX:a:t=P:problem:w źródle ta adnotacja zapisana za taktem 41, na pięciolinii	!
!	!	!	!	!	!	!	!LO:TX:b:i:t=V&colon; S&colon;	!
.	.	.	4B-\	.	2f\)	.	2a\)	.
.	.	.	4A\	.	.	.	.	.
!LO:LB:g=original	!	!	!	!	!	!	!LO:PB:g=original	!
=42	=42	=42	=42	=42	=42	=42	=42	=42
1D	sal-	.	[>1G	-va-	[>1f	-rem	1bn	-rem
=43	=43	=43	=43	=43	=43	=43	=43	=43
1D	-va-	.	1G]	.	1f]	.	1bn	sal-
=44	=44	=44	=44	=44	=44	=44	=44	=44
1C	-to-	.	2G/	-to-	2e\	sal-	1cc	-va-
.	.	.	2A/	.	2f\	-va-	.	.
=45	=45	=45	=45	=45	=45	=45	=45	=45
1C	.	.	1G	.	(>2f\	-to-	1cc	-to-
.	.	.	.	.	2e\)	.	.	.
=46	=46	=46	=46	=46	=46	=46	=46	=46
1F	-rem.	.	1A	rem.	1f	-rem.	[>1cc	-rem.
=47	=47	=47	=47	=47	=47	=47	=47	=47
!LO:TX:t=P:problem:w źródle brak tego taktu; dodano, aby zgadzały się piony brzmieniowe	!	!	!LO:TX:t=P:problem:w źródle brak tego taktu; dodano, aby zgadzały się piony brzmieniowe	!	!LO:TX:t=P:problem:w źródle brak tego taktu; dodano, aby zgadzały się piony brzmieniowe	!	!	!
1ryy	.	.	1ryy	.	1ryy	.	1cc]	.
==48	==48	==48	==48	==48	==48	==48	==48	==48
*M3/2	*	*	*M3/2	*	*M3/2	*	*M3/2	*
*	*	*	*rscale:1/2	*	*	*	*rscale:1/2	*
!	!	!	!LO:TX:t=P:problem:w źródle metrum 3/4, ale w pozostałych głosach 3/2; zastosowano rscale	!	!	!	!LO:TX:t=P:problem:w źródle metrum 3/4, ale w pozostałych głosach 3/2; zastosowano rscale	!
2B-\	Be-	.	2B-\	Be-	2f\	Be-	2dd\	Be-
2B-\	-ne-	.	2B-\	-ne-	2f\	-ne-	2dd\	-ne-
2B-\	-di-	.	2B-\	-di-	2f\	-di-	2dd\	-di-
=49	=49	=49	=49	=49	=49	=49	=49	=49
1A	-xi-	.	1c	-xi-	1f	-xi-	1cc	-xi-
2A\	-sti	.	2c\	-sti	2f\	-sti	2cc\	-sti
!	!	!	!LO:LB:g=original	!	!LO:LB:g=original	!	!	!
=50	=50	=50	=50	=50	=50	=50	=50	=50
1G	Do-	.	1d	Do-	1f	Do-	1b-X	Do-
2G\	-mi-	.	2B-\	-mi-	2e\	-mi-	2b-\	-mi-
=51	=51	=51	=51	=51	=51	=51	=51	=51
2F\	-ne	.	2c\	-ne	1.f	-ne	1.a	-ne
(>4A\	ter-	.	4c\L	ter-	.	.	.	.
4G\	.	.	4B-\	.	.	.	.	.
4A\	.	.	4c\	.	.	.	.	.
4B-\)	.	.	4d\J	.	.	.	.	.
!LO:LB:g=original	!	!	!	!	!	!	!LO:LB:g=original	!
=52	=52	=52	=52	=52	=52	=52	=52	=52
2c\	-ram	.	2e\	-ram	(>1.e	ter-	1.g	ter-
4G\	ter-	.	4B-\L	ter-	.	.	.	.
4F\	.	.	4A\	.	.	.	.	.
4G\	.	.	4B-\	.	.	.	.	.
4A\	.	.	4c\J	.	.	.	.	.
=53	=53	=53	=53	=53	=53	=53	=53	=53
2B-\	-ram	.	2d\	-ram	1d	.	1f	-ram
4F\	ter-	.	4A\L	ter-	.	.	.	.
4E\	.	.	4G\	.	.	.	.	.
4F\	.	.	4A\	.	4a\	.	(>4b-\L	ter-
4G\	.	.	4B-\J	.	4g\	.	4a\)J	.
=54	=54	=54	=54	=54	=54	=54	=54	=54
1A	.	.	1c	.	1f)	.	1a	.
2B-\	-ram	.	2d\	-ram	2f\	-ram	2g\	-ram
=55	=55	=55	=55	=55	=55	=55	=55	=55
1c	tu-	.	1c	tu-	(>1f	tu-	1.g	tu-
2C/	.	.	2c\	-am	2e\)	.	.	.
=56	=56	=56	=56	=56	=56	=56	=56	=56
2F\	-am	.	2r	.	2f\	-am	2a\	-am
!LO:TX:a:t=P:problem:w źródle "p." zapisane na pięiolini	!	!	!	!	!	!	!	!
!	!	!LO:DY:rj	!	!	!	!	!	!
!	!	!LO:DY:b:t=p.	!	!	!	!	!	!
2A\	a-	p	2f\	a-	2f\	a-	2a\	a-
2c\	-ver-	.	2e\	-ver-	2g\	-ver-	2cc\	-ver-
!	!	!	!LO:LB:g=original	!	!	!	!	!
=57	=57	=57	=57	=57	=57	=57	=57	=57
2A\	-ti-	.	2f\	-ti-	2f\	-ti-	2a\	-ti-
4c\	-sti	.	4e\L	-sti	4g\	-sti	4cc\	-sti
4B-\	ca-	.	4d\J	.	4f\	ca-	4b-\	ca-
4A\	-pti-	.	4c\L	cap-	4e\	-pti-	4a\	-pti-
4B-\	-vi-	.	4B-\J	.	4g\	-vi-	4b-\	-vi-
!LO:LB:g=original	!	!	!	!	!LO:LB:g=original	!	!LO:LB:g=original	!
=58	=58	=58	=58	=58	=58	=58	=58	=58
4c\	-ta-	.	4A\L	-ti-	1f	-ta-	4cc\L	-ta-
4B-\	.	.	4G\J	.	.	.	4b-\	.
4c\	.	.	4A\L	-vi-	.	.	4cc\	.
4d\	.	.	4B-\J	.	.	.	4dd\J	.
2c\	-tem	.	2c\	-ta-	2e\	-tem	2cc\	.
=59	=59	=59	=59	=59	=59	=59	=59	=59
4A\	Ja-	.	4d\L	-tem	(>2d\	Ja-	(>4a\L	-tem
4B-\	.	.	4B-\J	.	.	.	4dd\)J	.
1G	.	.	1c	Ja-	2f\	.	1g	Ja-
.	.	.	.	.	2e\)	.	.	.
=60	=60	=60	=60	=60	=60	=60	=60	=60
2A\	-cob,	.	2F/	-cob	2f\	-cob	2a\	-cob
!LO:TX:a:t=P:problem:w źródle "f." zapisane na pięiolini	!	!	!	!	!	!	!	!
!	!	!LO:DY:rj	!	!	!	!	!	!
!	!	!LO:DY:b:t=f.	!	!	!	!	!	!
2B-\	a-	f	2d\	a-	2f\	a-	2dd\	a-
2A\	-ver-	.	2f\	-ver-	2a\	-ver-	2cc\	-ver-
=61	=61	=61	=61	=61	=61	=61	=61	=61
2B-\	-ti-	.	2d\	-ti-	2f\	-ti-	2dd\	-ti-
4A\	-sti	.	4A\	-sti	4f\	-sti	4cc\	-sti
4G\	ca-	.	8B-\L	ca-	4e-X\	ca-	4b-\	ca-
.	.	.	8c\J	.	.	.	.	.
4F\	-pti-	.	4d\	-pti-	4d\	-pti-	4a\	-pti-
4E-X\	-vi-	.	4c\	-vi-	4g\	-vi-	4cc\	-vi-
!	!	!	!	!	!	!	!LO:LB:g=original	!
=62	=62	=62	=62	=62	=62	=62	=62	=62
4D\	-ta-	.	1B-	-ta-	(>2.f\	-ta-	4dd\L	-ta-
4C\	.	.	.	.	.	.	4ee-X\J	.
4D\	.	.	.	.	.	.	4ff\L	.
4E-X\	.	.	.	.	4g\	.	8ee-\	.
.	.	.	.	.	.	.	8dd\J	.
2F\	-tem	.	2F/	-tem	2a\)	.	4cc\L	.
.	.	.	.	.	.	.	4ff\J	.
!LO:LB:g=original	!	!	!LO:LB:g=original	!	!	!	!	!
=63	=63	=63	=63	=63	=63	=63	=63	=63
4G\	Ja-	.	1B-	Ja-	2g\	-tem	4dd\L	-tem
4E-X\	.	.	.	.	.	.	4ee-X\J	Ja-
2F\	.	.	.	.	1f	Ja-	1cc	.
2FF/	.	.	2A\	.	.	.	.	.
=64	=64	=64	=64	=64	=64	=64	=64	=64
!	!	!	!	!	!LO:N:vis=0	!	!	!
1.BB-	-cob:	.	1.B-	-cob.	1f	-cob.	1.dd	-cob.
.	.	.	.	.	2ryy	.	.	.
!	!	!	!	!	!LO:LB:g=original	!	!	!
==65	==65	==65	==65	==65	==65	==65	==65	==65
*	*	*	*M3/2	*	*M3/2	*	*M3/2	*
!	!	!	!LO:TX:t=P:problem:w źródle metrum 3/4, ale w pozostałych głosach 3/2; zastosowano rscale	!	!	!	!LO:TX:t=P:problem:w źródle metrum 3/4, ale w pozostałych głosach 3/2; zastosowano rscale	!
2.G\	Glo-	.	2.d\	Glo-	2.g\	Glo-	2.b-\	glo-
4G\	-ri-	.	4d\	-ri-	4g\	-ri-	4b-\	-ri-
2G\	-a	.	2d\	-a	2g\	-a	2b-\	-a
=66	=66	=66	=66	=66	=66	=66	=66	=66
2G\	pa-	.	2e-X\	pa-	2a\	pa-	2cc\	pa-
2G\	-tri	.	2e-\	-tri	2a\	-tri	2cc\	-tri
2F\	et	.	2f\	et	2a\	et	2dd\	et
=67	=67	=67	=67	=67	=67	=67	=67	=67
1E-X	fi-	.	1B-	fi-	1g	fi-	1dd	fi-
2E-\	-li-	.	2e-X\	-li-	2g\	-li-	2cc\	-li-
!	!	!	!	!	!	!	!LO:LB:g=original	!
=68	=68	=68	=68	=68	=68	=68	=68	=68
2D\	-o	.	2d\	-o	2f#X\	-o	2dd\	-o
!LO:TX:a:t=P:problem:w źródle "p." zapisane na pięiolini	!	!	!	!	!	!	!	!
!	!	!LO:DY:rj	!	!	!	!	!	!
!	!	!LO:DY:b:t=p.	!	!	!	!	!	!
2d\	et	p	2d\	et	2f#\	et	2dd\	et
!LO:TX:a:t=P:problem:w źródle ta adnotacja zapisana za taktem 68, za pięciolinią (na marginesie strony)	!	!	!	!	!	!	!	!
!LO:TX:b:i:t=V&colon; S&colon;	!	!	!	!	!	!	!	!
2c\	spi-	.	2c\	spi-	2f#\	spi-	2dd\	spi-
!LO:PB:g=original	!	!	!	!	!	!	!	!
=69	=69	=69	=69	=69	=69	=69	=69	=69
2.B-\	-ri-	.	2.B-X\	-ri-	2.g\	-ri-	2.dd\	-ri-
4A\	-tu-	.	4A\	-tu-	4f#X\	-tu-	4cc\	-tu-
2G\	-i	.	2G/	-i	2g\	-i	2b-\	-i
!	!	!	!LO:LB:g=original	!	!	!	!	!
=70	=70	=70	=70	=70	=70	=70	=70	=70
2c\	san-	.	2c\	san-	(>2g\	san-	(>2ee-X\	san-
2d\	.	.	2d\	.	2f#X\	.	4dd\L	.
.	.	.	.	.	.	.	4cc\)J	.
2e-X\	.	.	2e-X\	.	2g\)	.	2b-\	-cto
!	!	!	!	!	!LO:LB:g=original	!	!	!
=71	=71	=71	=71	=71	=71	=71	=71	=71
2c\	.	.	2c\	.	1g	.	4ee-X\L	San-
.	.	.	.	.	.	.	[>4a\J	.
2d\	.	.	2d\	.	.	.	1a]	.
2D/	.	.	2D/	.	2f#X\	.	.	.
=72	=72	=72	=72	=72	=72	=72	=72	=72
2G\	-cto	.	2G/	-cto	2g\	-cto	2b-\	-cto
!LO:TX:a:t=P:problem:w źródle "f." zapisane na pięiolini	!	!	!	!	!	!	!	!
!	!	!LO:DY:rj	!	!	!	!	!	!
!	!	!LO:DY:b:t=f.	!	!	!	!	!	!
2G\	et	f	2d\	et	2g\	et	2b-\	et
2F\	spi-	.	2d\	spi-	2g\	spi-	2b-\	spi-
!	!	!	!	!	!	!	!LO:LB:g=original	!
=73	=73	=73	=73	=73	=73	=73	=73	=73
2.E-X\	-ri-	.	2.c\	-ri-	2.g\	-ri-	2.cc\	-ri-
4D\	-tu-	.	4Bn\	-tu-	4f\	-tu-	4dd\	-tu-
!	!	!	!	!	!	!	!LO:SIC:s:v=ee-	!
2C/	-i	.	2c\	-i	2e-X\	-i	2ee\	-i
=74	=74	=74	=74	=74	=74	=74	=74	=74
2F\	san-	.	(>2c\	san-	2a-X\	San-	2ff\	san-
2G\	.	.	2B-X\)	.	4g\	.	4ee-X\L	.
.	.	.	.	.	4f\	.	4dd\J	.
2A-X\	.	.	2e-X\	.	2e-X\	.	2cc\	-cto
=75	=75	=75	=75	=75	=75	=75	=75	=75
2F\	.	.	2e-X\	.	2a-X\	.	(>1cc	san-
!	!	!	!LO:TX:t=P:problem:kasownik een za kreską taktową	!	!	!	!	!
!	!	!	!LO:TX:a:t=P:problem:w źródle ta adnotacja zapisana za taktem 75, na pięciolinii	!	!	!	!	!
!	!	!	!LO:TX:b:i:t=V&colon; S&colon;	!	!	!	!	!
2G\	.	.	1d	.	1g	.	.	.
2GG/	.	.	.	.	.	.	2bn\)	.
!LO:LB:g=original	!	!	!LO:PB:g=original	!	!	!	!	!
=76	=76	=76	=76	=76	=76	=76	=76	=76
2C/	-cto	.	2en\	-cto	2g\	-cto	2cc\	-cto
4c\	si-	.	4c\	si-	4g\	si-	4ee-X\	si-
4c\	-cut	.	4c\	-cut	4g\	-cut	4ee-\	-cut
4Bn\	e-	.	4d\	e-	4g\	e-	4dd\	e-
!	!	!	!	!	!LO:TX:a:t=P:problem:w źródle ta adnotacja zapisana za taktem 76, na pięciolinii i częściowo za pięciolinią	!	!	!
!	!	!	!	!	!LO:TX:b:i:t=V&colon; S&colon;	!	!	!
4B\	-rat	.	4d\	-rat	4g\	-rat	4dd\	-rat
!	!	!	!	!	!LO:PB:g=original	!	!	!
=77	=77	=77	=77	=77	=77	=77	=77	=77
(>2c\	in	.	1c	in	1g	in	1ee-X	in
2B-X\)	.	.	.	.	.	.	.	.
2A-X\	prin-	.	2c\	prin-	2f\	prin-	2ff\	prin-
!	!	!	!	!	!	!	!LO:LB:g=original	!
=78	=78	=78	=78	=78	=78	=78	=78	=78
2.G\	-ci-	.	2.Bn\	-ci-	2.g\	-ci-	2.dd\	-ci-
4G\	-pi-	.	4B\	-pi-	4g\	-pi-	4dd\	-pi-
2G\	-o	.	2B\	-o	2g\	-o	2dd\	-o
=79	=79	=79	=79	=79	=79	=79	=79	=79
2G\	et	.	2Bn\	et	2g\	et	2dd\	et
2G\	nunc	.	2B\	nunc	2g\	nunc	2dd\	nunc
2A-X\	et	.	2c\	et	2f\	et	2cc\	et
=80	=80	=80	=80	=80	=80	=80	=80	=80
2F\	sem-	.	4f\L	sem-	(>2a-X\	sem-	(>1cc	sem-
.	.	.	4e-X\J	.	.	.	.	.
2G\	.	.	1d	.	1g)	.	.	.
2GG/	.	.	.	.	.	.	2bn\)	.
=81	=81	=81	=81	=81	=81	=81	=81	=81
2C/	-per	.	2e-X\	per	2g\	-per	2cc\	-per
2E-X\	et	.	2e-\	et	2g\	et	2b-X\	et
2D\	in	.	2B-X\	in	2f\	in	2b-\	in
!LO:LB:g=original	!	!	!LO:LB:g=original	!	!	!	!	!
=82	=82	=82	=82	=82	=82	=82	=82	=82
!LO:SIC:l:v:s=sae-	!	!	!LO:SIC:l:v:s=sae-	!	!LO:SIC:l:v:s=sae-	!	!LO:SIC:l:v:s=sae-LO:SIC:l:v:s=sae-	!
(>4E-X\	se-	.	2e-X\	se-	2g\	se-	2b-\	se-
4F\)	.	.	.	.	.	.	.	.
4G\	-cu-	.	4e-\	-cu-	4g\	-cu-	4b-\	-cu-
4F\	-la	.	4e-\	-la	4g\	-la	4b-\	-la
!LO:SIC:l:v:s=sae-	!	!	!LO:SIC:l:v:s=sae-	!	!LO:SIC:l:v:s=sae-	!	!LO:SIC:l:v:s=sae-	!
4G\	se-	.	4B-\	se-	4g\	se-	4ee-X\	se-
4A-X\	-cu-	.	4c\	-cu-	4f\	-cu-	4ee-\	-cu-
!	!	!	!	!	!LO:LB:g=original	!	!LO:LB:g=original	!
=83	=83	=83	=83	=83	=83	=83	=83	=83
1B-	-lo-	.	(>2.B-\	-lo-	1f	-lo-	1dd	-lo-
.	.	.	4c\)	.	.	.	.	.
2Bn\	-rm	.	2d\	-rum	2g\	-rum	2dd\	-rum
=84	=84	=84	=84	=84	=84	=84	=84	=84
2c\	a-	.	(>2c\	a-	1g	a-	(>2ee-X\	a-
2Bn\	.	.	2d\	.	.	.	2dd\	.
2c\	-men	.	2c\)	.	2g\	-men	2ee-\)	.
=85	=85	=85	=85	=85	=85	=85	=85	=85
2F\	a-	.	2d\	-men	(>2a-X\	a-	(>4dd\L	-men
.	.	.	.	.	.	.	4cc\)J	.
2G\	.	.	1d	a-	1g)	.	(>2cc\	a-
2GG/	.	.	.	.	.	.	2bn\)	.
=86	=86	=86	=86	=86	=86	=86	=86	=86
2C/	men	.	2en\	-men	2g\	-men	2cc\	-men
2c\	et	.	2e\	et	2g\	et	2r	.
2c\	in	.	2e\	in	2g\	in	2r	.
=87	=87	=87	=87	=87	=87	=87	=87	=87
!LO:SIC:l:v:s=sae-	!	!	!LO:SIC:l:v:s=sae-	!	!LO:SIC:l:v:s=sae-	!	!	!
2.An\	se-	.	2.c\	se-	2an\	se-	2r	.
.	.	.	.	.	2a\	-cu-	2ff\	et
4A\	-cu-	.	4c\	-cu-	.	.	.	.
2A\	-la	.	2c\	-la	2a\	-la	2ff\	in
!LO:LB:g=original	!	!	!LO:LB:g=original	!	!	!	!	!
=88	=88	=88	=88	=88	=88	=88	=88	=88
!	!	!	!	!	!	!	!LO:SIC:l:v:s=sae-	!
2r	.	.	2r	.	2r	.	2.dd\	se-
2B-X\	et	.	2d\	et	2f\	et	.	.
.	.	.	.	.	.	.	4dd\	-cu-
2B-\	in	.	2d\	in	2f\	in	2dd\	-la
!	!	!	!	!	!	!	!LO:LB:g=original	!
=89	=89	=89	=89	=89	=89	=89	=89	=89
!LO:SIC:l:v:s=sae-	!	!	!LO:SIC:l:v:s=sae-	!	!LO:SIC:l:v:s=sae-	!	!	!
2.G\	se-	.	2.B-\	se-	2.g\	se-	2r	.
!	!	!	!	!	!	!	!LO:SIC:l:v:s=sae-	!
.	.	.	.	.	.	.	2een\	se-
4G\	-cu-	.	4B-\	-cu-	4g\	-cu-	.	.
2G\	-la	.	2B-\	-la	2g\	-la	2ee\	-cu-
!	!	!	!	!	!LO:LB:g=original	!	!	!
=90	=90	=90	=90	=90	=90	=90	=90	=90
!LO:SIC:l:v:s=sae-	!	!	!LO:SIC:l:v:s=sae-	!	!LO:SIC:l:v:s=sae-	!	!	!
2.An\	se-	.	2.A\	se-	2.en\	se-	1cc#X	-lo-
4G\	-cu-	.	4A\	-cu-	4e\	-cu-	.	.
2F\	-lo-	.	2A\	-lo-	2a\	-lo-	2dd\	-rum
=91	=91	=91	=91	=91	=91	=91	=91	=91
2G\	-rum	.	2B-\	-rum	(>4g\	-rum	(>4ee\L	a-
.	.	.	.	.	4f\)	.	4dd\J	.
2A\	a-	.	1A	a-	1e	a-	2dd\	.
2AA/	.	.	.	.	.	.	2cc#X\)	.
=92	=92	=92	=92	=92	=92	=92	=92	=92
2D\	-men	.	2A\	-men	2f\	-men	2dd\	-men
!LO:SIC:l:v:s=sae-	!	!	!LO:SIC:l:v:s=sae-	!	!LO:SIC:l:v:s=sae-	!	!LO:SIC:l:v:s=sae-	!
4F\	se-	.	4A\	se-	4f\	se-	4ccn\	se-
4F\	-cu-	.	4A\	-cu-	4f\	-cu-	4cc\	-cu-
2AA/	-lo-	.	2A\	-lo-	2f\	-lo-	2cc\	-lo-
!LO:LB:g=original	!	!	!	!	!	!	!	!
=93	=93	=93	=93	=93	=93	=93	=93	=93
2BB-/	-rum	.	2G/	-rum	2f\	-rum	2dd\	-rum
1C	a-	.	1G	a-	(>2f\	a-	1cc	a-
.	.	.	.	.	2e\)	.	.	.
=94	=94	=94	=94	=94	=94	=94	=94	=94
!	!	!	!	!	!LO:N:vis=0	!	!	!
1.F	-men.	.	1.A/	-men.	1f	-men.	1.cc	-men.
.	.	.	.	.	2ryy	.	.	.
==	==	==	==	==	==	==	==	==
*-	*-	*-	*-	*-	*-	*-	*-	*-
!!!system-decoration: [(s1,s2,s3,s4)]
!!!RDF**kern: > = above
!!!RDF**kern: < = below
!!!EED: Antoni Szymański
!!!EST: 2021-02-03
!!!ENC: Marcin Jachim
!!!END: 2021-01-28
